!!!!SEGMENT: pl-cz--ii-87--005-005_hanel--missae-kirie-benedictus.krn
!!!cenid: 18xx:1202
!!!COM: Hanel
!!!COM-rismID: pe30017835
!!!CDT: ~1800-~1899
!!!CNT:
!!!OPR: Missae Kirie
!!!OTL: Benedictus
!!!OMV: 005
!!!PDT: 1888
!!!AGN: Sacred; Mass
!!!SMS-siglum: PL-CZ
!!!SMS-shelfmark: II-87
!!!SMS-shelfwork: 005-005 M
!!!SMS-variant:
!!!SMS-altvar:
!!!NIFC-rismSourceID: 300033228
!!!NIFC-islandoraID: pl-cz:33881
!!!URL-pdf-islandora: https://repozytorium.nifc.pl/islandora/object/pl-cz%3A33881/datastream/PDF/view
!!!URL-scan:
!!!ONB-nifc: UWAGA: części Mszy: Kirie, Gloria, Credo, Sanctus, Benedictus, Agnus
!!!OMD: Andantina
!!!AIN: 1 organ 1 vox
!!!key: F
**kern	**kern	**text	**dynam
*part2	*part1	*part1	*part1
*staff2	*staff1	*staff1	*
*I"Organo	*I"Voce	*	*
*Iorgan	*Ivox	*	*
*ICklav	*ICvox	*	*
*clefF4	*clefG2	*	*
*k[b-]	*k[b-]	*	*
*F:	*F:	*	*
*M3/4	*M3/4	*	*
=1	=1	=1	=1
*^	*^	*	*
!	!LO:N:vis=2	!	!	!	!LO:DY:b:rj
4c/	2.F\	4a/	2.f\	.	p
8Bn/L	.	8g#X/L	.	.	.
8c/	.	8a/	.	.	.
8.d/	.	8.b-/	.	.	.
16c/Jk	.	16a/Jk	.	.	.
*v	*v	*	*	*	*
=2	=2	=2	=2	=2
4C\ 4B-\	8.a/L	4ryy	ve-	.
.	16g/Jk	.	.	.
4D\ 4A\	4f/	4d\	-nit	.
8r	8r	8ryy	.	.
!	!	!LO:N:vis=4	!	!
8C\ 8A\	8f#X/	8e-X\	qui	.
*	*v	*v	*	*
=3	=3	=3	=3
!	!LO:N:vis=8.	!	!
4.BB-\ 4.B-\	8g/L	ve-	.
.	8a/	-nit	.
.	8cc/	in	.
8GG\L 8G\	8d/ 8g/ 8b-/	no-	.
8AA\ 8A\	8d/ 8f#X/ 8a/	-mi-	.
8BB-\J 8B-\	8d/J 8g/	-ne	.
=4	=4	=4	=4
*^	*	*	*
8.A/L	2C\	8.c/L 8.f/	Do-	.
16B-/Jk	.	16g/Jk	-mi-	.
4G/	.	4c/ 4e/	-ni	.
4r	4ryy	8r	.	.
.	.	8c/	Ho-	.
=5	=5	=5	=5	=5
4c/	2.F\	4a/	-san-	.
4Bn/	.	8a/L	-na	.
.	.	8g#X/	.	.
!	!	!LO:TX:t=P:problem=kropka przed nutą	!	!
4A/	.	8a/	in	.
.	.	8bn/J	ex-	.
!!LO:LB:g=original
=6	=6	=6	=6	=6
2A/	2E\	8.e/L 8.cc/	-cel-	.
.	.	16d/Jk 16bn/	.	.
.	.	4c/ 4a/	-sis	.
4r	4ryy	8r	.	.
.	.	8e/ 8cc/	in	.
*v	*v	*	*	*
=7	=7	=7	=7
*	*^	*	*
*	*	*^	*	*
2.E\	4bn/	2.e/	4d\	ex-	.
.	4c/ 4a/	.	2ryy	-cel-	.
.	4Bn/ 4g#X/	.	.	.	.
*	*	*v	*v	*	*
=8	=8	=8	=8	=8
*^	*	*	*	*
4AA\ 4A\	4ryy	4c/ 4a/	4ryy	-sis	.
2c/	4A\	(>4cc/	2e\	.	.
.	4G\	4b-X/)	.	.	.
=9	=9	=9	=9	=9	=9
4c/	2.F\	4a/	2.f\	Be-	.
8Bn/L	.	8g#X/L	.	-ne-	.
8c/	.	8a/	.	-di-	.
8.d/	.	8.b-/	.	-ctus	.
16e/Jk	.	16a/Jk	.	qui	.
*v	*v	*	*	*	*
=10	=10	=10	=10	=10
4C\ 4B-\	8.a/L	2ryy	ve-	.
.	16g/Jk	.	.	.
4D\ 4A\	4d/ 4f/	.	-nit	.
8r	8r	8ryy	.	.
8C\ 8A\	8f#X/	8e-X\	qui	.
*	*v	*v	*	*
!!LO:LB:g=original
=11	=11	=11	=11
4.BB-\ 4.B-\	8g/L	ve-	.
.	8a/	-nit	.
.	8cc/	in	.
8GG\L 8G\	8d/ 8g/ 8b-/	no-	.
8AA\ 8A\	8d/ 8f#X/ 8a/	-mi-	.
8BB-\J 8B-\	8d/J 8g/	-ne	.
=12	=12	=12	=12
*^	*	*	*
8.A/L	2C\	8.c/L 8.f/	Do-	.
16B-/Jk	.	16g/Jk	-mi-	.
4G/	.	4c/ 4e/	-ni	.
4r	4ryy	8r	.	.
.	.	8c/	Ho-	.
*v	*v	*	*	*
=13	=13	=13	=13
2.F\ 2.c\	4.f/ 4.a/	-san-	.
.	8f/L	-na	.
!	!LO:TX:t=P:korekta:problem	!	!
.	8en/ 8g/	in	.
.	8e-X/J 8a/	ex-	.
=14	=14	=14	=14
[<4BB-\ [>4B-\	(<8.d/L 8.b-/	-cel-	.
.	16f/Jk) 16a/ 16cc/	.	.
8BB-\] 8B-\]	8f\ 8b-\ 8dd\	-sis	.
8r	8r	.	.
4Bn\	4f/ 4a-X/ 4dd/	in	.
=15	=15	=15	=15
*	*^	*	*
4c/	2.a/ 2.cc/	2.f\	ex-	.
4A/	.	.	.	.
4F/	.	.	.	.
!!LO:LB:g=original
=16	=16	=16	=16	=16
!	!	!LO:N:vis=2	!	!
2.C\ 2.G\	(>4e/	2.B-\	-cel-	.
.	4d/	.	.	.
.	4e/)	.	.	.
*	*v	*v	*	*
=17	=17	=17	=17
!LO:N:vis=2	!	!	!
2.FF;</ 2.F/	2.A;>/ 2.f/	-sis.	.
==	==	==	==
*-	*-	*-	*-
!!!system-decoration: [(s1,s2)]
!!!RDF**kern: < = below
!!!RDF**kern: > = above
!!!ENC: Andrzej Kubiczek
!!!END: 2020-11-08
!!!ENC: Marta Chmielewska
!!!END: 2021-11-15
